X:23
T:The Golden Keyboard
S:Bernie Waugh
R:Reel
M:4/4
L:1/8
K:E Dorian
|:\
"Em"BGEF GFGA|"Bm"B2gB fBed|"Em"BGEF GBAG|"D"F/E/DAD BDAF|
"Em(C)"EDEF GFGA|"Bm(Am)"B2gB fBec|"D"d/e/dce dBAF|DFAF "Em"GEE2:|
|:\
"Em(E)"Bee/e/e Bee/e/e|"E7"Beef "A"edBc|\
"D"dAA/A/A "A7"eAce|"D"d/e/dce "Bm"dBAF|
"Em"EDEF GFGA|"Bm"B2gB "C"fBec|"D"d/e/dce dBAF|DFAF "Em"GEE2:|

